X:36
T:Lift Up Your Heads, Ye Mighty Gates
%%stretchlast false
M:3/4
L:1/4
K:F clef=C1
"^V"[CEc] "^I"[F,Fca]2 | [F,Acf] "^I¹"[A,Fcf] "^V²"[G,Gce] | "^I"[F,Acf] "^V¹"[E,Gcg]2 | "^V²"[G,Gce] "^V"[CEc]2 | [CEGc] [CEGc] "^II7¹"[=B,FGd] | "^V7³"[B,Gce] "^I¹"[A,Fcf]2 | "^IV"[B,FBd] "^I²"[CFAc]2 | "^V7"[CEGB] "^I"[F,CFA]2 | [F,CFA] [F,FAc] "^I¹"[A,Fcf] | "^I"[F,Fca] "^V¹"[E,Gcg] [E,Gce] | [E,EGc] "^vi¹"[F,DAf] [F,FAd] | "^V/V"[G,DG=B] "^V"[CEGc]2 | "^iii"[A,EAc] "^vi"[D,DAf]2 | "^V"[C,Ecg] "^I"[F,Fca]2 | "^vi"[D,Adf] "^V²"[G,Gce]2 | "^II"[G,G=Bd]/ "^II7"[G,F=Bd]/ "^V"[CEGc]2 | "^I"[F,Acf] "^V"[CGce]2 | "^V7³"[B,Ecg] "^I¹"[A,Fcf]2 | "^I"[F,Fca] "^V¹"[E,Gcg]2 | "^V7¹"[E,Gcb] "^I"[F,Fca]2 | "^V"[CEc] "^V7¹"[E,Gcb] "^I"[F,Fca] | "^V²"[G,Ecg] "^I¹"[A,Fcf] "^Imaj7¹"[A,Fce] | "^IV"[B,FBd] "^I²"[CFAc]2 | "^V"[CEGc] "^I"[F,FAc]2 | [FAcc'] "^V¹"[EGcc']2 | "^I"[Fca] "^IV¹"[DFdb]2 | "^V¹"[EGcc'] "^I"[Fca]2 | [F,FAc] "^IV"[B,FBd] "^ii"[G,Gdb] | "^ii¹"[B,Gdg] "^I²"[CAcf]2 | "^V"[CGce]/ "^V7"[CGBe]/ "^I"[F,FAf]2 |]
